src/badges/Avalon/OTC.svg

<svg width="40" height="20" viewBox="0 0 40 20" fill="none" xmlns="http://www.w3.org/2000/svg">
<rect x="0.615387" width="39.2308" height="20" rx="10" fill="#8626DB" style="fill:#8626DB;fill:color(display-p3 0.5272 0.1496 0.8590);fill-opacity:1;"/>
<path fill-rule="evenodd" clip-rule="evenodd" d="M10.5763 4.25195C13.8365 4.25195 15.9099 6.43795 15.9099 9.96109C15.9099 13.4917 13.8365 15.6777 10.5763 15.6777C7.30109 15.6777 5.22777 13.4917 5.22777 9.96109C5.22777 6.43795 7.32362 4.25195 10.5763 4.25195ZM10.5763 6.5356C9.05138 6.5356 8.03726 7.87274 8.03726 9.96108C8.03726 12.0569 9.03636 13.3941 10.5763 13.3941C12.1013 13.3941 13.1079 12.0569 13.1079 9.96108C13.1079 7.87274 12.0938 6.5356 10.5763 6.5356ZM21.7821 15.3849H19.0327V6.76107H15.9077V4.54502H24.9146V6.76107H21.7821V15.3849ZM30.024 15.6778C26.7788 15.6778 24.7806 13.4993 24.7806 9.96115C24.7806 6.42298 26.7713 4.25201 30.024 4.25201C32.7509 4.25201 34.8167 6.06992 34.8993 8.52635H32.2476C32.1048 7.34696 31.2109 6.55069 30.024 6.55069C28.5141 6.55069 27.5901 7.84276 27.5901 9.95363C27.5901 12.072 28.5141 13.3791 30.0315 13.3791C31.2184 13.3791 32.1048 12.6129 32.2626 11.4485H34.9068C34.8167 13.9275 32.8034 15.6778 30.024 15.6778Z" fill="white" style="fill:white;fill-opacity:1;"/>
</svg>

<svg width="40" height="20" fill="none" xmlns="http://www.w3.org/2000/svg"><rect x=".615" width="39.231" height="20" rx="10" fill="color(display-p3 .5272 .1496 .859)"/><path fill-rule="evenodd" clip-rule="evenodd" d="M10.576 4.254c3.26 0 5.334 2.186 5.334 5.709 0 3.53-2.074 5.717-5.334 5.717-3.275 0-5.348-2.186-5.348-5.717 0-3.523 2.096-5.71 5.348-5.71Zm0 2.283c-1.525 0-2.539 1.337-2.539 3.426 0 2.095 1 3.433 2.54 3.433 1.524 0 2.53-1.338 2.53-3.433 0-2.089-1.013-3.426-2.53-3.426Zm11.206 8.85h-2.75V6.763h-3.124V4.547h9.007v2.216h-3.133v8.624Zm8.242.293c-3.245 0-5.243-2.179-5.243-5.717s1.99-5.709 5.243-5.709c2.727 0 4.793 1.818 4.875 4.274h-2.651c-.143-1.18-1.037-1.975-2.224-1.975-1.51 0-2.434 1.292-2.434 3.403 0 2.118.924 3.425 2.442 3.425 1.186 0 2.073-.766 2.23-1.93h2.645c-.09 2.478-2.104 4.229-4.883 4.229Z" fill="#fff"/></svg>
